assets/more.svg

<svg width="24" height="24" viewBox="0 0 24 24" fill="none" xmlns="http://www.w3.org/2000/svg">
<path fill-rule="evenodd" clip-rule="evenodd" d="M9.29401 15.2359C8.90847 15.6255 8.90847 16.2529 9.29401 16.6426L9.34047 16.6895C9.73184 17.0851 10.3708 17.0851 10.7622 16.6895L14.7062 12.7034C15.0917 12.3138 15.0917 11.6864 14.7062 11.2967L10.7622 7.3106C10.3708 6.91506 9.73184 6.91506 9.34047 7.3106L9.29401 7.35757C8.90847 7.74722 8.90847 8.37461 9.29401 8.76425L12.4956 12.0001L9.29401 15.2359Z" fill="#FF3E79"/>
</svg>

<svg width="24" height="24" fill="none" xmlns="http://www.w3.org/2000/svg"><path fill-rule="evenodd" clip-rule="evenodd" d="M9.294 15.236a1 1 0 0 0 0 1.407l.046.046a1 1 0 0 0 1.422 0l3.944-3.986a1 1 0 0 0 0-1.406L10.762 7.31a1 1 0 0 0-1.422 0l-.046.047a1 1 0 0 0 0 1.406L12.496 12l-3.202 3.236Z" fill="#FF3E79"/></svg>
